X:5
T:Ar baradoz
R:Chant catholique
C:Traditionnel
S:N°609, Tonoù Breiz-Izel, Polig Monjarret
Q:C3=56
P:IJ7
M:12/8
%%MIDI program 19
%%MIDI gchord f3c3f3c3
%%MIDI chordprog 19
%%MIDI bassprog 19
%%MIDI bassvol 127
K:G
P:I
A \
P:J
| c2 B (AB)c B3-B2 d | c2 B (AB)c B3-B2 c/2B/2
|: A2 B (AG)F G3 A3 |1 c2 B (AB)c B3-B2 B :|2 c2 B (AG)B A3-A2 A | c2 B (AB)c B3-B2 A | c2 B (AB)c B3-B2 A
|: A2 A (ABA) G3 A3 | (cB)A G(AB) A3-A2 A :|






